juniorguru/images/bullet.svg

<svg xmlns="http://www.w3.org/2000/svg" xmlns:xlink="http://www.w3.org/1999/xlink" xmlns:sketch="http://www.bohemiancoding.com/sketch/ns" version="1.1" x="0px" y="0px" viewBox="0.53 0.02 99.03 96.33" width="100"><title>Imported Layers</title><desc>Created with Sketch.</desc>
<g stroke="none" stroke-width="1" fill="none" fill-rule="evenodd" sketch:type="MSPage">
<g sketch:type="MSLayerGroup" fill="#343434">
    <path d="M87.2019802,48.5346429 C85.4534653,44.6170306 82.9871287,41.2576633 79.2188119,39.0137959 C78.190099,38.4011122 77.2544554,38.5802653 76.7970297,39.6868571 C76.4118812,40.6192449 75.8594059,40.9161837 74.9178218,41.1111735 C72.8980198,41.5288673 72.7128713,41.904 72.8683168,44.0221633 C72.8841584,44.2339796 72.9683168,44.4853878 72.8871287,44.6546429 C71.9227723,46.6688776 73.0277228,48.0605306 74.2752475,49.4274388 C74.8039604,50.0054796 75.3019802,50.6132143 75.8019802,51.2169898 C77.7376238,53.5499388 79.2554455,56.1550816 80.250495,58.9928265 C81.8465347,63.5458878 80.3138614,67.570398 77.6693069,71.2653061 C75.3643564,74.486102 71.9950495,76.479551 68.6831683,78.4126224 C60.5069307,83.182449 51.6445545,86.0766122 42.3029703,87.5622959 C39.839604,87.9532653 37.4227723,87.9107041 35.1564356,86.8783469 C32.6267327,85.7252347 30.1336634,84.4681939 27.7217822,83.085449 C23.4128713,80.6149184 19.7465347,77.3149388 16.2623762,73.8090816 C14.3178218,71.8532449 12.9079208,69.6163061 12.1950495,66.8884286 C11.3920792,63.8190714 10.9287129,60.7398163 11.1554455,57.5714796 C11.1554455,56.0749082 10.9514851,54.5446837 11.1940594,53.0877041 C11.880198,48.9562959 11.9207921,44.7427347 13.2247525,40.6746735 C14.0326733,38.1536633 15.2564356,35.9513673 16.8,33.9331735 C19.5059406,30.3946531 23.1257426,27.780602 26.5821782,25.0398571 C28.1831683,23.769949 29.9722772,22.6316837 31.8455446,21.8319286 C36.1039604,20.0136735 40.5584158,19.3376429 45.2128713,20.0641531 C49.3792079,20.7134592 53.0792079,22.3139592 56.4455446,24.8211122 C57.2237624,25.4001429 58.1891089,25.7564694 59.109901,26.1048776 C59.8940594,26.4018163 60.6356436,26.2464184 61.2366337,25.5525714 C61.9217822,24.7597449 61.8118812,23.8738776 61.3257426,23.1671633 C60.2554455,21.6102143 59.5059406,19.7137653 57.4267327,19.0842551 C57.0346535,18.9664694 56.7039604,18.6329082 56.3574257,18.3805102 C54.5227723,17.0393367 52.7960396,15.515051 50.839604,14.3866837 C47.1237624,12.2437755 43.0762376,11.1144184 38.7405941,11.5717041 C33.290099,12.1467755 28.2108911,14.0719286 23.1782178,16.1099184 C22.3891089,16.4286327 21.6029703,16.819602 20.9148515,17.3145 C14.9425743,21.6013061 9.7980198,26.6423367 6.47227723,33.3214796 C6.12277228,34.0232449 5.68217822,34.6794796 5.33861386,35.3852041 C4.87524752,36.3393673 4.3960396,37.2965 4.04653465,38.2952041 C3.43465347,40.0402143 2.86237624,41.8030408 2.37326733,43.5846735 C1.82772277,45.5711939 1.14851485,47.5656327 0.957425743,49.5966939 C0.45049505,54.9782143 0.245544554,60.3656735 1.29306931,65.7432347 C2.12970297,70.038949 3.15346535,74.2465714 5.81485149,77.8118163 C7.55247525,80.1408061 9.40693069,82.4005102 11.380198,84.5315408 C14.0346535,87.3979898 17.2792079,89.521102 21.0287129,90.6168061 C26.6287129,92.2549184 32.3128713,93.6030204 37.9336634,95.1728367 C41.7742574,96.2457755 45.6752475,96.4150306 49.6138614,96.2972449 C52.0772277,96.2230102 54.3861386,95.5558878 56.5851485,94.4384082 C57.8544554,93.7930612 59.1554455,93.1892857 60.4910891,92.6993367 C65.4643564,90.8731633 70.2217822,88.619398 74.6178218,85.6490204 C77.460396,83.7278265 80.160396,81.6443061 82.4059406,79.0005612 C85.6049505,75.233398 87.6544554,70.8951224 89.1108911,66.2242755 C89.5990099,64.6613878 90.1960396,63.1677857 89.9772277,61.4455408 C89.4207921,57.0577755 89.0306931,52.6333878 87.2019802,48.5346429" sketch:type="MSShapeGroup"></path>
</g>
</g></svg>

<?xml version="1.0" encoding="UTF-8"?>
<svg width="100" version="1.1" viewBox=".53 .02 99.03 96.33" xmlns="http://www.w3.org/2000/svg">
 <title>Imported Layers</title>
 <desc>Created with Sketch.</desc>
 <g fill="none" fill-rule="evenodd">
  <g fill="#343434">
   <path d="m87.202 48.535c-1.7485-3.9176-4.2149-7.277-7.9832-9.5208-1.0287-0.61268-1.9644-0.43353-2.4218 0.67306-0.38515 0.93239-0.93762 1.2293-1.8792 1.4243-2.0198 0.41769-2.205 0.79283-2.0495 2.911 0.015842 0.21182 0.1 0.46322 0.018812 0.63248-0.96436 2.0142 0.14059 3.4059 1.3881 4.7728 0.52871 0.57804 1.0267 1.1858 1.5267 1.7896 1.9356 2.3329 3.4535 4.9381 4.4485 7.7758 1.596 4.5531 0.063366 8.5776-2.5812 12.272-2.305 3.2208-5.6743 5.2142-8.9861 7.1473-8.1762 4.7698-17.039 7.664-26.38 9.1497-2.4634 0.39097-4.8802 0.34841-7.1465-0.68395-2.5297-1.1531-5.0228-2.4102-7.4347-3.7929-4.3089-2.4705-7.9752-5.7705-11.459-9.2764-1.9446-1.9558-3.3545-4.1928-4.0673-6.9207-0.80297-3.0694-1.2663-6.1486-1.0396-9.3169 0-1.4966-0.20396-3.0268 0.038614-4.4838 0.68614-4.1314 0.72673-8.345 2.0307-12.413 0.80792-2.521 2.0317-4.7233 3.5752-6.7415 2.7059-3.5385 6.3257-6.1526 9.7822-8.8933 1.601-1.2699 3.3901-2.4082 5.2634-3.2079 4.2584-1.8183 8.7129-2.4943 13.367-1.7678 4.1663 0.64931 7.8663 2.2498 11.233 4.757 0.77822 0.57903 1.7436 0.93536 2.6644 1.2838 0.78416 0.29694 1.5257 0.14154 2.1267-0.55231 0.68515-0.79283 0.57525-1.6787 0.089109-2.3854-1.0703-1.5569-1.8198-3.4534-3.899-4.0829-0.39208-0.11779-0.72277-0.45135-1.0693-0.70374-1.8347-1.3412-3.5614-2.8655-5.5178-3.9938-3.7158-2.1429-7.7634-3.2723-12.099-2.815-5.4505 0.57507-10.53 2.5002-15.562 4.5382-0.78911 0.31871-1.5752 0.70968-2.2634 1.2046-5.9723 4.2868-11.117 9.3278-14.443 16.007-0.3495 0.70177-0.7901 1.358-1.1337 2.0637-0.46337 0.95416-0.94257 1.9113-1.2921 2.91-0.61188 1.745-1.1842 3.5078-1.6733 5.2895-0.54554 1.9865-1.2248 3.981-1.4158 6.012-0.50693 5.3815-0.71188 10.769 0.33564 16.147 0.83663 4.2957 1.8604 8.5033 4.5218 12.069 1.7376 2.329 3.5921 4.5887 5.5653 6.7197 2.6545 2.8664 5.899 4.9896 9.6485 6.0853 5.6 1.6381 11.284 2.9862 16.905 4.556 3.8406 1.0729 7.7416 1.2422 11.68 1.1244 2.4634-0.074235 4.7723-0.74136 6.9713-1.8588 1.2693-0.64535 2.5703-1.2491 3.9059-1.7391 4.9733-1.8262 9.7307-4.0799 14.127-7.0503 2.8426-1.9212 5.5426-4.0047 7.7881-6.6485 3.199-3.7672 5.2485-8.1054 6.705-12.776 0.48812-1.5629 1.0851-3.0565 0.86634-4.7787-0.55644-4.3878-0.94653-8.8122-2.7752-12.911"/>
  </g>
 </g>
</svg>
